X: 690
T: Evreşe Yolları
C: (Anonim)
O: Turkey
F: http://compmusic.upf.edu/node/140
N: rast--turku--evfer--evrese_yollari--
N: makam= rast
N: form= turku
N: usul= evfer = 9/8
M: 9/8
L: 1/16
K: C _1/4B ^f  
Q: 1/4=180
%%MIDI tuningsystem comma53
c4 c2B2 B2A2 A2AB {A}G2 | G6 z2cB cdB2 AGG2  | \
w:  Ev re şe  yol *  la rı   |  dar  dar    | 
A2B2 c2d2 B2c2 A2AB {A}G2 | 
w:  Ba na  bak ma  be nim  yâ rim   | 
G16z2  | c4 c2B2 B2A2 A2AB {A}G2 | G6 z2cB cdB2 AGG2  | 
w:  var    |  Ev re şe  yol *  la rı   |  dar  dar    | 
A2B2 c2d2 B2c2 A2AB {A}G2 | G16z2  | \
w:  Ba na  bak ma  be nim  yâ rim   |  var    | 
G2G2 G2c2 B2A2 B4 G2 | A2 B2c2 c2B2 A2G6  | 
w:  Bir  *  fı rın  yap tır dım   |  dol dur dum_ ek mek le ri    | 
G2G2 G2c2 B2A2 B4 G2 | A2 c2c2 c2B2 A2G6  | \
w:  Gel  be ra ber  yi ye lim   |  yap tır dım  bö rek le ri    | 
c4 c2B2 B2A2 A2AB {A}G2 | 
w:  Ev re şe  yol *  la rı   | 
G6 z2cB cdB2 AGG2  | A2B2 c2d2 B2c2 A2AB {A}G2 | \
w:  dar  dar    |  Ba na  bak ma  be nim  yâ rim   | 
G16z2  | 
w:  var    | 
c4 c2B2 B2A2 A2AB {A}G2 | G6 z2cB cdB2 AGG2  | \
w:  Ev re şe  yol *  la rı   |  dar  dar    | 
A2B2 c2d2 B2c2 A2AB {A}G2 | 
w:  Ba na  bak ma  be nim  yâ rim   | 
G16z2  | |


